icons/mobile/24/svg/local-network-24.svg

<svg width="24" height="24" viewBox="0 0 24 24" fill="none" xmlns="http://www.w3.org/2000/svg">
<path d="M7.25 14.25C7.94036 14.25 8.5 14.8096 8.5 15.5C8.5 16.1904 7.94036 16.75 7.25 16.75C6.55964 16.75 6 16.1904 6 15.5C6 14.8096 6.55964 14.25 7.25 14.25Z" fill="black"/>
<path d="M12.25 14.25C12.9404 14.25 13.5 14.8096 13.5 15.5C13.5 16.1904 12.9404 16.75 12.25 16.75C11.5596 16.75 11 16.1904 11 15.5C11 14.8096 11.5596 14.25 12.25 14.25Z" fill="black"/>
<path fill-rule="evenodd" clip-rule="evenodd" d="M18.125 5C18.608 5 19 5.392 19 5.875V10.4346C19.0873 10.4454 19.1749 10.4555 19.2627 10.4668C20.8204 10.6676 22 11.9946 22 13.5723V17.4297C22 18.989 20.854 20.3265 19.292 20.5293C17.1258 20.8096 14.6793 21 12 21C9.86922 21 7.42458 20.8805 4.7373 20.5342C3.17954 20.3334 2 19.0064 2 17.4287V13.5713C2.00001 12.012 3.14603 10.6745 4.70801 10.4717C6.8742 10.1914 9.32072 10.001 12 10.001C13.5859 10.001 15.3457 10.0675 17.25 10.2441V5.875C17.25 5.392 17.642 5 18.125 5ZM12 11.751C9.40348 11.751 7.03329 11.9354 4.93359 12.207C4.25984 12.2944 3.75001 12.8748 3.75 13.5713V17.4287C3.75 18.119 4.2687 18.7086 4.96094 18.7979C7.56556 19.1335 9.93485 19.25 12 19.25C14.5965 19.25 16.9667 19.0656 19.0664 18.7939C19.7402 18.7066 20.25 18.1262 20.25 17.4297V13.5723C20.25 12.8819 19.7313 12.2923 19.0391 12.2031C16.4344 11.8675 14.0651 11.751 12 11.751Z" fill="black"/>
<path d="M9.61523 5.75C10.3121 5.75004 10.9707 5.91042 11.5586 6.19434C11.8735 6.3453 11.9489 6.76079 11.7021 7.00781L11.4844 7.22559H11.4824C10.9875 7.72152 10.3152 7.99993 9.61426 8C8.91326 8 8.24109 7.72059 7.74609 7.22559L7.52832 7.00781C7.28237 6.76186 7.35706 6.34641 7.6709 6.19434C8.2599 5.91034 8.91823 5.75 9.61523 5.75Z" fill="black"/>
<path d="M9.61621 2.25C11.1391 2.25004 12.5668 2.65732 13.8027 3.36426C14.2977 3.64726 14.3766 4.33333 13.9736 4.73633C13.7036 5.00704 13.284 5.07859 12.9531 4.88867C11.9682 4.32472 10.8301 4.00004 9.61621 4C8.40236 4 7.26421 4.3248 6.2793 4.88867C5.94833 5.07866 5.52782 5.00627 5.25781 4.73633C4.8549 4.33342 4.934 3.64737 5.42871 3.36426C6.66471 2.65826 8.09321 2.25 9.61621 2.25Z" fill="black"/>
</svg>

<!-- This Source Code Form is subject to the terms of the Mozilla Public
   - License, v. 2.0. If a copy of the MPL was not distributed with this
   - file, You can obtain one at http://mozilla.org/MPL/2.0/. -->
<svg xmlns="http://www.w3.org/2000/svg" width="24" height="24" fill="none" viewBox="0 0 24 24">
    <path fill="#000" d="M7.25 14.25a1.25 1.25 0 1 1 0 2.5 1.25 1.25 0 0 1 0-2.5m5 0a1.25 1.25 0 1 1 0 2.5 1.25 1.25 0 0 1 0-2.5" />
    <path fill="#000" fill-rule="evenodd" d="M18.125 5c.483 0 .875.392.875.875v4.56q.13.014.263.032A3.14 3.14 0 0 1 22 13.572v3.858a3.12 3.12 0 0 1-2.708 3.1 56.8 56.8 0 0 1-14.555.004A3.14 3.14 0 0 1 2 17.43v-3.86a3.12 3.12 0 0 1 2.708-3.1 56.8 56.8 0 0 1 12.542-.227V5.875c0-.483.392-.875.875-.875M12 11.751c-2.597 0-4.967.184-7.066.456a1.37 1.37 0 0 0-1.184 1.364v3.858c0 .69.519 1.28 1.21 1.369a55 55 0 0 0 14.106-.004 1.37 1.37 0 0 0 1.184-1.364v-3.858c0-.69-.519-1.28-1.21-1.369a55 55 0 0 0-7.04-.452" clip-rule="evenodd" />
    <path fill="#000" d="M9.615 5.75c.697 0 1.356.16 1.944.444.315.151.39.567.143.814l-.218.218h-.002a2.64 2.64 0 0 1-3.736 0l-.218-.218a.507.507 0 0 1 .143-.814 4.5 4.5 0 0 1 1.944-.444m.001-3.5c1.523 0 2.95.407 4.187 1.114.495.283.574.97.17 1.372a.85.85 0 0 1-1.02.153A6.7 6.7 0 0 0 9.616 4a6.7 6.7 0 0 0-3.337.889.85.85 0 0 1-1.021-.153c-.403-.403-.324-1.089.17-1.372A8.4 8.4 0 0 1 9.617 2.25" />
</svg>
